X: 31586
T: Palm Tree, The
R: reel
M: 4/4
K: Gminor
F2~D2 B2df|egfe dB~B2|cFAc BAFD|EGFD EC~C2|
F2~D2 B2df|egfe dB~B2|cF~F2 fecB|1 FECE DB,B,2:|2 FECD B,4||
|:fd~d2 BdF2|ec~c2 AcFE|DF~F2 EGcB|AF~F2 gf=eg|
fd~d2 BdF2|ec~c2 AcFE|DF~F2 EGcB|1 AFEC B,2 (3cde:|2 AFEC B,2F2||

